ui/src/style/icons/file.svg

<?xml version="1.0" encoding="utf-8"?>
<!-- Generated by IcoMoon.io -->
<!DOCTYPE svg PUBLIC "-//W3C//DTD SVG 1.1//EN" "http://www.w3.org/Graphics/SVG/1.1/DTD/svg11.dtd">
<svg version="1.1" xmlns="http://www.w3.org/2000/svg" xmlns:xlink="http://www.w3.org/1999/xlink" width="24" height="24" viewBox="0 0 24 24">
<path fill="#607d8b" d="M6 2c-1.105 0-1.99 0.895-1.99 2l-0.010 16c0 1.105 0.885 2 1.99 2h12.010c1.105 0 2-0.895 2-2v-12l-6-6h-8zM13 9v-5.5l5.5 5.5h-5.5z"></path>
</svg>

<svg xmlns="http://www.w3.org/2000/svg" width="24" height="24"><path fill="#607d8b" d="M6 2a1.99 1.99 0 0 0-1.99 2L4 20c0 1.105.885 2 1.99 2H18a2 2 0 0 0 2-2V8l-6-6H6zm7 7V3.5L18.5 9H13z"/></svg>
